X:1
T:The Christian's Hope
T:William Walker, 1835 A Major          Alto by William Walker, 1867
T:Transcribed from Southern Harmony, 1835; and Christian Harmony, 1867.
T:Anonymous author, before 1822                       88. 86. 88. 86.                  
%%score [ 1 2 3 4 ]
L:1/8
Q:1/4=100
M:6/8
K:A
V:1 treble nm="Tr." snm="Tr."
V:2 treble nm="A." snm="A."
V:3 treble-8 nm="T." snm="T."
V:4 bass nm="B." snm="B."
V:1
"_1. A    few  more days on  earth to  spend,             And all    my  toils  and cares  shall   end         And  I shall see my God and friend,  And praise his name on high:\n2. Then,  O  my  soul! despond  no  more;             The storm of  life   will  soon   be       o'er,       And  I shall find  the peaceful shore   Of   ev – er – las – ting   rest.\n" A3 | %1
 c2 B A2 A | e2 c (A2 B | c2) c B2 c | e2 f e2 c | (A3 c2) c | B2 B B2 c | e2 e c2 c | B2 B A2 B | %9
 c6 |: %10
"_1. No   more to  sigh  nor shed  a  tear,   No more  to  suf – fer  pain   or     fear;     But God, and Christ, and heaven appear  Un–to  the  raptured  eye.\n2.  O    happy  day!  O  joyful hour!  When freed from earth my soul shall tower     Be – yond  the  reach  of  Satan's  power,  To  be  for  ev – er    blest.\n" e3 c2 c | %11
 e2 e c2 c | B2 B A2 A | e2 f e2 c | (A3 c2) c | B2 B B2 c | e2 e c2 c | B2 B A2 B | c6 |] %19
V:2
"_3. My  soul  an – ti – ci  –  pates the  day,                 I'll   joy – ful – ly     the   call     o  –  bey,         Which comes to summon me away   To   seats  prepared  a – bove.\n4. Though  dire  afflictions press me sore,                And  death's  dark  billows  roll  be–fore,         Yet  still  by  faith  I  see  the  shore,   Be–yond  the  rol–ling flood:" E3 | %1
 E2 E F2 F | A2 A (E2 G | A2) A G2 F | E2 A G2 F | F3- F2 A | G2 F E2 F | E2 E A2 A | G2 F E2 E | %9
 E6 |: %10
"_3. There I  shall  see  my  Savior's face,  And dwell in  his  be – loved  em – brace,      And  taste  the fullness of his grace,  And  sing  redeeming  love.\n4. The banks of Canaan sweet and fair, Be–fore    my  raptured  eyes  ap  – pear;       It makes me think I’m almost there,   In  yon–der bright a –bode." E3 E2 E | %11
 E2 E F2 A | G2 F [EA]2 A | G2 F E2 E | F3- F2 A | G2 F E2 F | E2 E A2 A | G2 F E2 E | E6 |] %19
V:3
"_5. To     earthly  cares  I     bid  fare – well,              And  triumph  o  –  ver  death  and    hell,    And go where saints and angels dwell,  To  praise th'e–ter–nal Three.\n6. Adieu, ye  scenes  of  noise  and   show!             And  all   this   re – gion  here   be  – low,  Where naught but disappointments grow  A  bet – ter  world's  in view." E3 | %1
 A2 B c2 c | e2 f (e2 d | c2) c e2 c | B2 A B2 c | (A3 F2) A | E2 F E2 F | A2 B c2 c | e2 d c2 B | %9
 A6 |: %10
"_5. I'll join with those who're gone before,  Who sing and shout their sufferings o'er   Where pain and parting are no more,  To   all    e  – ter – ni  –  ty.\n6. My   Sa – vior  calls,   I  haste  a – way;  I  would  not  here  for  ev – er  stay;   Hail! ye bright realms of endless day!  Wain world, once more adieu!" c3 e2 f | %11
 e2 c a2 f | e2 e c2 c | B2 A B2 c | (A3 F2) A | E2 F E2 F | A2 B c2 c | e2 d c2 B | A6 |] %19
V:4
 A,3 | A,2 E, F,2 F, | E,2 F, (A,2 E, | F,2) A, E,2 F, | E,2 C, E,F, A, | (A,3 F,2) F, | %6
 E,2 C, E,2 F, | A,2 G, F,2 F, | E,2 F, C,2 E, | A,,6 |: A,3 A,2 A, | A,2 [E,C] A,2 F, | %12
 E,2 E, F,2 F, | %13
"______________________________________________\nA folk hymn (Jackson 1953b, No. 167).\nThe Sacred Harp, p. 134, 1844 to the present." E,2 C, E,F, A, | %14
 (A,3 F,2) F, | E,2 C, E,2 F, | A,2 G, F,2 F, | E,2 F, C,2 E, | A,,6 |] %19

